X: 1
T: John Naughton's
M: 4/4
L: 1/8
R: reel
K: Edor
EFGA BE~E2|GEBE GEDF|EFGA BABc|1 dBAG FDDF:|2 dBAG FDD2||
e2ed BABd|edef gbaf|~e3d BABc|1 dBAG FDD2:|2 dBAG FDDF||
